build/img/favicon.svg

<svg width="28" height="28" viewBox="0 0 28 28" fill="none" xmlns="http://www.w3.org/2000/svg">
<circle cx="14" cy="14" r="14" fill="black"/>
<path d="M7.34021 8.56188H7.44771C8.23146 8.57278 8.98366 8.87251 9.56034 9.4037V8.59571C9.56336 8.57147 9.57548 8.56036 9.59567 8.56036H10.5445C10.5682 8.56289 10.5798 8.57551 10.5798 8.59571V14.8677C10.5813 14.8778 10.5778 14.8879 10.5707 14.8945C10.5637 14.901 10.5536 14.9046 10.544 14.9036H9.59516C9.58507 14.9051 9.57497 14.9016 9.56841 14.8945C9.56185 14.8874 9.55832 14.8773 9.55933 14.8677V14.0597C9.00669 14.5834 8.27994 14.8829 7.51938 14.9031H7.25038C6.38887 14.8657 5.57986 14.4769 5.01208 13.8274C4.52736 13.2562 4.25539 12.5345 4.24243 11.7852V11.6954C4.24395 10.6823 4.73854 9.73296 5.56774 9.15121C6.08253 8.77448 6.70228 8.56895 7.34021 8.56188ZM5.26342 11.6792V11.7873C5.26576 12.1617 5.3683 12.5286 5.56036 12.8499C5.75243 13.1712 6.02701 13.4352 6.35556 13.6143C6.6444 13.7819 6.9706 13.8745 7.30438 13.8835H7.48354C8.61152 13.8446 9.51391 12.9341 9.54267 11.8049V11.661C9.52602 10.8389 9.03798 10.1006 8.28903 9.76225C8.01628 9.6509 7.72555 9.59015 7.43105 9.58297H7.37655C6.82145 9.58993 6.29077 9.81246 5.89658 10.2036C5.50238 10.5947 5.27503 11.1238 5.26342 11.6792Z" fill="white"/>
<path d="M16.1834 6.78784C16.2071 6.79087 16.2187 6.80299 16.2187 6.82319V14.8677C16.2202 14.8778 16.2167 14.8879 16.2096 14.8945C16.2025 14.901 16.1925 14.9046 16.1829 14.9036H15.234C15.224 14.9051 15.2139 14.9016 15.2073 14.8945C15.2007 14.8874 15.1972 14.8773 15.1982 14.8677V14.0597C14.645 14.583 13.9178 14.8831 13.1567 14.9021H12.8883C12.4619 14.8834 12.0438 14.7785 11.6591 14.5937C11.2744 14.4089 10.9311 14.1481 10.65 13.8269C10.1652 13.2557 9.89327 12.534 9.88031 11.7847V11.6949C9.88182 10.6818 10.3759 9.73296 11.2051 9.15121C11.7199 8.77398 12.3397 8.56743 12.9776 8.56036H13.0851C13.8689 8.57147 14.6214 8.87093 15.1982 9.40219V6.82319C15.2007 6.79946 15.2134 6.78784 15.2335 6.78784H16.1834ZM10.9013 11.6792V11.7873C10.9036 12.1617 11.0062 12.5286 11.1982 12.8499C11.3903 13.1712 11.6649 13.4352 11.9934 13.6143C12.2823 13.7819 12.6085 13.8745 12.9423 13.8835H13.1214C14.2494 13.8451 15.1523 12.9341 15.1806 11.8049V11.661C15.1639 10.8389 14.6759 10.1006 13.9274 9.76225C13.6546 9.651 13.3639 9.59026 13.0694 9.58297H13.0154C12.4603 9.58993 11.9297 9.81246 11.5355 10.2036C11.1413 10.5947 10.9144 11.1238 10.9028 11.6792H10.9013Z" fill="white"/>
<path d="M18.6094 8.65631H18.7709C19.2418 8.66186 19.7051 8.77634 20.1245 8.99079C20.5439 9.20525 20.908 9.51388 21.1884 9.89253C21.582 10.4011 21.8021 11.0227 21.8142 11.6661V11.9186C21.8142 12.134 21.7963 12.2418 21.7607 12.2418H16.5695V12.2594C16.6794 12.7328 16.9428 13.1565 17.3185 13.4644C17.6943 13.7723 18.1613 13.9472 18.6468 13.9618H18.7361C19.0601 13.9575 19.3791 13.8814 19.6702 13.7389C19.9612 13.5964 20.2171 13.391 20.4192 13.1376H21.4942C21.1798 13.8428 20.601 14.3961 19.8827 14.6783C19.5133 14.8298 19.1182 14.9088 18.7189 14.9111H18.6836C18.1403 14.912 17.6063 14.7702 17.1349 14.4998C16.6636 14.2294 16.2714 13.84 15.9976 13.3704C15.7216 12.8841 15.5737 12.3352 15.5687 11.7757C15.5676 10.961 15.8855 10.1784 16.4542 9.59547C17.0228 9.01251 17.797 8.67557 18.6109 8.65682L18.6094 8.65631ZM16.5679 11.3075C18.9407 11.319 20.3612 11.3249 20.8295 11.3252V11.3025C20.702 10.7569 20.3767 10.278 19.9165 9.95869C19.5749 9.73649 19.1782 9.61176 18.7709 9.60519H18.5917C18.2491 9.61675 17.9143 9.71071 17.6156 9.87913C17.3169 10.0475 17.0632 10.2855 16.8758 10.5728C16.7332 10.7987 16.6298 11.0471 16.57 11.3075H16.5679ZM13.8416 15.8398C13.5585 15.4137 13.1753 15.0637 12.7254 14.8204C12.2756 14.5772 11.773 14.4481 11.2616 14.4445H11.1607C10.6494 14.4481 10.1468 14.5772 9.69692 14.8204C9.24709 15.0637 8.86381 15.4137 8.58074 15.8398C8.24114 16.3367 8.05446 16.9222 8.04375 17.524V17.7043C8.05368 18.2296 8.19495 18.7441 8.45467 19.2007C8.71438 19.6574 9.08426 20.0417 9.53056 20.3186C9.68446 20.4056 9.84376 20.4827 10.0075 20.5494C10.3416 20.7019 10.704 20.7817 11.0709 20.7837H11.3575C11.7244 20.7817 12.0868 20.7019 12.4204 20.5494C12.5843 20.4828 12.7438 20.4057 12.8978 20.3186C13.344 20.0417 13.7138 19.6573 13.9735 19.2007C14.2331 18.744 14.3743 18.2296 14.3842 17.7043V17.5245C14.3734 16.9224 14.1865 16.3367 13.8467 15.8398H13.8416ZM11.1163 19.7646C10.7832 19.7555 10.4562 19.6636 10.1675 19.496C10.0141 19.395 9.86466 19.294 9.73849 19.1652L9.73042 19.1804C9.62923 19.0828 9.53512 18.9782 9.4488 18.8673C9.19904 18.523 9.06188 18.1099 9.05615 17.6846V17.5432C9.05111 17.1624 9.15961 16.7892 9.36906 16.4711L9.38824 16.4948C9.48312 16.3423 9.59415 16.2009 9.71881 16.0721L9.86769 15.9434L9.90807 15.9115C10.1084 15.7534 10.3356 15.6326 10.5788 15.555C10.7024 15.5187 10.8281 15.4924 10.9558 15.4762H10.9709C11.0113 15.4712 11.0517 15.4712 11.0906 15.4692L11.1854 15.4641H11.2238L11.3187 15.4692L11.4378 15.4762H11.4529C11.5806 15.4924 11.7063 15.5192 11.8299 15.555C12.073 15.6327 12.3002 15.7534 12.5007 15.9115L12.541 15.9434L12.6924 16.0721C12.8171 16.2009 12.9281 16.3428 13.023 16.4948L13.0422 16.4711C13.2513 16.7891 13.3603 17.1625 13.3551 17.5432V17.6846C13.3491 18.11 13.2116 18.5232 12.9614 18.8673C12.8755 18.9782 12.7815 19.0826 12.6803 19.1798L12.6722 19.1647C12.541 19.2884 12.3967 19.3995 12.2433 19.4955C11.9541 19.6623 11.6281 19.7546 11.2944 19.7641L11.1163 19.7646Z" fill="white"/>
<path d="M17.3982 19.6611V20.7721L17.273 20.7771H17.2013C15.2347 20.8906 14.047 20.1023 13.6382 18.4123L13.6201 17.6952C13.6322 17.343 13.6382 16.9549 13.6382 16.5307V14.4703C13.6367 14.4602 13.6402 14.4501 13.6473 14.4435C13.6544 14.437 13.6645 14.4334 13.6741 14.4344H14.6229C14.633 14.4329 14.6431 14.4365 14.6496 14.4435C14.6562 14.4506 14.6597 14.4607 14.6587 14.4703V17.1937L14.7304 18.2325C14.9272 19.2182 15.6136 19.7259 16.7895 19.7555C16.9959 19.7544 17.2011 19.7226 17.3982 19.6611Z" fill="white"/>
<path d="M18.6321 14.4435H18.7396C19.5234 14.4546 20.2754 14.7546 20.8522 15.2853V14.4774C20.8553 14.4531 20.8674 14.442 20.8876 14.442H21.8389C21.8626 14.445 21.8742 14.4572 21.8742 14.4774V20.7478C21.8758 20.7579 21.8722 20.768 21.8652 20.7746C21.8581 20.7812 21.848 20.7847 21.8384 20.7837H20.8896C20.8795 20.7852 20.8694 20.7817 20.8628 20.7746C20.8563 20.7675 20.8527 20.7574 20.8538 20.7478V19.9399C20.3006 20.4629 19.5736 20.7627 18.8128 20.7817H18.5443C17.6828 20.7443 16.8788 20.356 16.306 19.706C15.8211 19.1349 15.549 18.4132 15.5359 17.6639V17.5745C15.5374 16.561 16.032 15.6121 16.8612 15.0303C17.3759 14.6551 17.9947 14.4496 18.6316 14.443L18.6321 14.4435ZM16.5553 17.5608V17.6684C16.5604 18.4259 16.9793 19.1304 17.6475 19.4965C17.9364 19.6637 18.2626 19.7561 18.5963 19.7651H18.7754C19.9034 19.7262 20.8058 18.8157 20.8346 17.6866V17.5442C20.8184 16.722 20.3299 15.9827 19.5809 15.6454C19.3081 15.5343 19.0174 15.4735 18.723 15.4661H18.6695C18.1144 15.4731 17.5837 15.6956 17.1895 16.0868C16.7953 16.4779 16.5684 17.007 16.5568 17.5624L16.5553 17.5608Z" fill="white"/>
</svg>

<svg width="28" height="28" fill="none" xmlns="http://www.w3.org/2000/svg"><circle cx="14" cy="14" r="14" fill="#000"/><path d="M7.34 8.562h.108c.783.01 1.536.31 2.112.842v-.808c.003-.025.015-.036.036-.036h.948c.024.003.036.016.036.036v6.272a.03.03 0 01-.01.027.035.035 0 01-.026.009h-.949a.03.03 0 01-.027-.01.035.035 0 01-.009-.026v-.808a3.084 3.084 0 01-2.04.843H7.25a3.155 3.155 0 01-2.238-1.076 3.243 3.243 0 01-.77-2.042v-.09a3.114 3.114 0 011.326-2.544 3.058 3.058 0 011.772-.59zm-2.077 3.117v.108a2.097 2.097 0 001.093 1.827c.288.168.615.26.948.27h.18a2.133 2.133 0 002.059-2.08v-.143a2.13 2.13 0 00-1.254-1.899 2.426 2.426 0 00-.858-.179h-.054a2.14 2.14 0 00-2.114 2.096z" fill="#fff"/><path d="M16.183 6.788c.024.003.036.015.036.035v8.045a.03.03 0 01-.01.027.035.035 0 01-.026.009h-.949a.03.03 0 01-.027-.01.035.035 0 01-.009-.026v-.808a3.083 3.083 0 01-2.041.842h-.269a3.158 3.158 0 01-2.238-1.075 3.243 3.243 0 01-.77-2.042v-.09a3.113 3.113 0 011.325-2.544 3.056 3.056 0 011.773-.59h.107a3.18 3.18 0 012.113.841V6.823c.003-.024.015-.035.035-.035h.95zm-5.282 4.891v.108a2.097 2.097 0 001.092 1.827c.29.168.615.26.95.27h.178a2.133 2.133 0 002.06-2.08v-.143a2.131 2.131 0 00-1.254-1.899 2.431 2.431 0 00-.858-.179h-.054a2.14 2.14 0 00-2.112 2.096H10.9z" fill="#fff"/><path d="M18.61 8.656h.16a3.052 3.052 0 012.418 1.237 2.99 2.99 0 01.626 1.773v.253c0 .215-.018.323-.053.323H16.57v.017a2.202 2.202 0 002.077 1.703h.09a2.19 2.19 0 001.682-.824h1.075a2.943 2.943 0 01-1.611 1.54c-.37.152-.765.23-1.164.233h-.035a3.102 3.102 0 01-2.686-1.54 3.29 3.29 0 01-.43-1.595 3.116 3.116 0 013.043-3.12h-.002zm-2.042 2.651c2.373.012 3.793.018 4.261.018v-.022a2.262 2.262 0 00-.913-1.344 2.168 2.168 0 00-1.145-.354h-.18a2.134 2.134 0 00-1.715.968 2.37 2.37 0 00-.306.734h-.002zm-2.726 4.533a3.124 3.124 0 00-2.58-1.396h-.101a3.124 3.124 0 00-2.58 1.396 3.082 3.082 0 00-.537 1.684v.18A3.147 3.147 0 009.53 20.32c.153.087.313.164.476.23.335.153.697.233 1.064.235h.287a2.59 2.59 0 001.062-.235c.164-.066.324-.143.478-.23a3.146 3.146 0 001.486-2.615v-.18a3.083 3.083 0 00-.537-1.684h-.005zm-2.726 3.925a2 2 0 01-.948-.269 2.539 2.539 0 01-.43-.33l-.008.014a2.967 2.967 0 01-.281-.313 2.061 2.061 0 01-.393-1.182v-.142c-.005-.38.104-.754.313-1.072l.02.024a2.53 2.53 0 01.33-.423l.149-.129.04-.031c.2-.159.428-.28.67-.357.124-.036.25-.063.378-.079h.015c.04-.005.08-.005.12-.007l.094-.005h.039l.095.005.119.007h.015c.128.016.253.043.377.079.243.078.47.198.67.357l.041.031.151.13c.125.128.236.27.331.422l.02-.024c.208.318.317.692.312 1.072v.142a2.06 2.06 0 01-.394 1.182 2.87 2.87 0 01-.28.313l-.009-.015a2.762 2.762 0 01-.429.33c-.289.167-.615.26-.949.27h-.178z" fill="#fff"/><path d="M17.398 19.661v1.111l-.125.005h-.072c-1.966.114-3.154-.675-3.563-2.365l-.018-.717c.012-.352.018-.74.018-1.164v-2.06a.03.03 0 01.01-.027.035.035 0 01.026-.01h.949a.03.03 0 01.027.01c.006.007.01.017.009.026v2.724l.071 1.039c.197.985.884 1.493 2.06 1.523.206-.002.411-.033.608-.095z" fill="#fff"/><path d="M18.632 14.444h.108a3.187 3.187 0 012.112.841v-.808c.003-.024.015-.035.036-.035h.95c.025.003.036.015.036.035v6.27a.03.03 0 01-.009.028.035.035 0 01-.027.009h-.948a.03.03 0 01-.027-.01.035.035 0 01-.01-.026v-.808a3.083 3.083 0 01-2.04.842h-.269a3.163 3.163 0 01-2.238-1.076 3.243 3.243 0 01-.77-2.042v-.09a3.114 3.114 0 011.325-2.544 3.06 3.06 0 011.77-.587h.001zm-2.077 3.117v.107a2.108 2.108 0 001.093 1.829c.288.167.615.26.948.268h.18a2.133 2.133 0 002.059-2.078v-.143a2.129 2.129 0 00-1.254-1.899 2.437 2.437 0 00-.858-.179h-.053a2.14 2.14 0 00-2.113 2.096l-.002-.001z" fill="#fff"/></svg>
